svgs/sharp-duotone-light/arrow-up-right-and-arrow-down-left-from-center.svg

<svg xmlns="http://www.w3.org/2000/svg" viewBox="0 0 512 512"><!--! Font Awesome Pro 7.1.0 by @fontawesome - https://fontawesome.com License - https://fontawesome.com/license (Commercial License) Copyright 2025 Fonticons, Inc. --><path opacity=".4" fill="currentColor" d=""/><path fill="currentColor" d="M292.7 196.7l-11.3 11.3 22.6 22.6 11.3-11.3 164.7-164.7 0 121.4 32 0 0-176-176 0 0 32 121.4 0-164.7 164.7zM219.3 315.3l11.3-11.3-22.6-22.6-11.3 11.3-164.7 164.7 0-121.4-32 0 0 176 176 0 0-32-121.4 0 164.7-164.7z"/></svg>

<svg xmlns="http://www.w3.org/2000/svg" viewBox="0 0 512 512"><!--! Font Awesome Pro 6.7.2 by @fontawesome - https://fontawesome.com License - https://fontawesome.com/license (Commercial License) Copyright 2024 Fonticons, Inc. --><defs><style>.fa-secondary{opacity:.4}</style></defs><path class="fa-secondary" d=""/><path class="fa-primary" d="M292.7 196.7L281.4 208 304 230.6l11.3-11.3L480 54.6 480 160l0 16 32 0 0-16 0-144 0-16L496 0 352 0 336 0l0 32 16 0 105.4 0L292.7 196.7zM219.3 315.3L230.6 304 208 281.4l-11.3 11.3L32 457.4 32 352l0-16L0 336l0 16L0 496l0 16 16 0 144 0 16 0 0-32-16 0L54.6 480 219.3 315.3z"/></svg>
